;Sliced by ideaMaker 4.3.3.6560, 2025-04-19 13:24:11 UTC+0900
;Dimension: 305.000 305.000 300.000 0.400
;Plate Shape: 0
;Origin Center: 0
;Extruder Offset #1: 0.000 0.000
;Filament Diameter #1: 1.750
;Filament Diameter #2: 1.750
;Filament Compensation #1: 90.00
;Filament Compensation #2: 90.00
;Filament Density #1: 1240.00
;Filament Density #2: 1240.00
;Filament Type #1: PLA
;Filament Type #2: 
;Filament Name #1: [Raise3D] PLA 1.75mm
;Filament Name #2: 
;Firmware: Raise3D Pro2
;Bounding Box: 106.000 199.000 134.438 170.562 0.000 15.320
;Model Gap: 0.150
M221 T0 S90.00
M140 S60.00
M104 T0 S205.00
M109 T0 S205.00
T0
M190 S60.00
G21
G90
M82
M107
G28 X0 Y0
G28 Z0
G1 Z15.0 F300
G92 E0
G1 F140 E29
G1 X20 Y0 F140 E30
G92 E0
G1 F6000.0
M117 Printing...
M1001
;TOTAL_NUM: 1
;PRINTING_TIME: 0
;REMAINING_TIME: 8418
M106 S0
;LAYER:-2
;Z:0.500
;HEIGHT:0.500
;PRINTING: NON-OBJECT
;PRINTING_ID: -1
G0 F6000 X125.399 Y140.758
G0 F300 Z0.500
;TYPE:RAFT
;WIDTH:0.800
G1 F480 X125.907 Y140.318 E0.1118
G1 X126.350 Y140.028 E0.1998
G1 X126.699 Y139.843 E0.2655
G1 X128.979 Y138.951 E0.6727
G1 X129.523 Y138.777 E0.7676
G1 X130.211 Y138.643 E0.8842
G1 X132.504 Y138.363 E1.2684
G1 X135.294 Y137.954 E1.7373
G1 X136.103 Y137.895 E1.8722
G1 X168.901 Y137.894 E7.3265
G1 X169.692 Y137.952 E7.4584
G1 X172.585 Y138.379 E7.9447
G1 X174.893 Y138.666 E8.3315
G1 X175.344 Y138.745 E8.4077
G1 X176.187 Y139.009 E8.5546
G1 X177.000 Y139.344 E8.7008
G1 X177.938 Y139.693 E8.8672
G1 X178.400 Y139.892 E8.9509
G1 X178.853 Y140.145 E9.0372
G1 X179.268 Y140.442 E9.1220
G1 X179.760 Y140.899 E9.2337
G1 X180.682 Y141.998 E9.4723
G1 X181.518 Y142.858 E9.6717
G1 X181.836 Y143.219 E9.7517
G1 X182.229 Y143.789 E9.8669
G1 X182.460 Y144.240 E9.9511
G1 X182.594 Y144.582 E10.0122
G1 X182.774 Y145.252 E10.1276
G1 X182.841 Y145.747 E10.2107
G1 X182.858 Y146.121 E10.2729
G1 X182.856 Y158.938 E12.4044
G1 X182.813 Y159.506 E12.4991
G1 X182.722 Y159.996 E12.5820
G1 X182.562 Y160.512 E12.6719
G1 X182.436 Y160.813 E12.7261
G1 X182.174 Y161.301 E12.8182
G1 X181.781 Y161.850 E12.9305
G1 X181.518 Y162.144 E12.9961
G1 X180.640 Y163.042 E13.2050
G1 X179.872 Y163.950 E13.4028
G1 X179.493 Y164.348 E13.4941
G1 X179.091 Y164.685 E13.5814
G1 X178.794 Y164.887 E13.6411
G1 X178.206 Y165.201 E13.7520
G1 X176.892 Y165.698 E13.9856
G1 X176.024 Y166.049 E14.1413
G1 X175.489 Y166.221 E14.2348
G1 X174.798 Y166.355 E14.3518
G1 X172.518 Y166.634 E14.7338
G1 X169.712 Y167.045 E15.2054
G1 X168.900 Y167.105 E15.3408
G1 X136.101 Y167.106 E20.7953
G1 X135.302 Y167.047 E20.9286
G1 X132.421 Y166.622 E21.4129
G1 X130.135 Y166.338 E21.7959
G1 X129.660 Y166.255 E21.8761
G1 X128.901 Y166.024 E22.0081
G1 X127.921 Y165.624 E22.1841
G1 X127.006 Y165.285 E22.3464
G1 X126.479 Y165.047 E22.4425
G1 X126.024 Y164.774 E22.5308
G1 X125.739 Y164.562 E22.5898
G1 X125.244 Y164.105 E22.7019
G1 X124.320 Y163.004 E22.9409
G1 X123.485 Y162.144 E23.1403
G1 X123.162 Y161.776 E23.2217
G1 X122.773 Y161.211 E23.3358
G1 X122.539 Y160.754 E23.4211
G1 X122.408 Y160.418 E23.4811
G1 X122.228 Y159.748 E23.5965
G1 X122.161 Y159.253 E23.6796
G1 X122.144 Y158.879 E23.7418
G1 X122.143 Y146.169 E25.8555
G1 X122.189 Y145.495 E25.9679
G1 X122.280 Y145.004 E26.0509
G1 X122.439 Y144.492 E26.1401
G1 X122.646 Y144.023 E26.2253
G1 X122.904 Y143.577 E26.3110
G1 X123.217 Y143.155 E26.3984
G1 X123.493 Y142.846 E26.4673
G1 X124.362 Y141.958 E26.6739
G1 X125.067 Y141.121 E26.8559
G1 X125.399 Y140.758 E26.9377
G0 F6000 X124.836 Y141.953
G1 F480 X124.836 Y163.059 E30.4476
G0 F6000 X127.260 Y164.995
G1 F480 X127.260 Y140.010 E34.6027
G0 F6000 X129.684 Y139.112
G1 F480 X129.684 Y165.885 E39.0550
G0 F6000 X132.108 Y166.220
G1 F480 X132.108 Y138.773 E43.6195
G0 F6000 X134.532 Y138.429
G1 F480 X134.532 Y166.569 E48.2992
G0 F6000 X136.956 Y166.746
G1 F480 X136.956 Y138.254 E53.0374
G0 F6000 X139.380 Y138.254
G1 F480 X139.380 Y166.746 E57.7757
G0 F6000 X141.804 Y166.746
G1 F480 X141.804 Y138.254 E62.5139
G0 F6000 X144.228 Y138.254
G1 F480 X144.228 Y166.746 E67.2521
G0 F6000 X146.652 Y166.746
G1 F480 X146.652 Y138.254 E71.9904
G0 F6000 X149.076 Y138.254
G1 F480 X149.076 Y166.746 E76.7286
G0 F6000 X151.500 Y166.746
G1 F480 X151.500 Y138.254 E81.4668
G0 F6000 X153.924 Y138.254
G1 F480 X153.924 Y166.746 E86.2051
G0 F6000 X156.348 Y166.746
G1 F480 X156.348 Y138.254 E90.9433
G0 F6000 X158.772 Y138.254
G1 F480 X158.772 Y166.746 E95.6816
G0 F6000 X161.196 Y166.746
G1 F480 X161.196 Y138.254 E100.4198
G0 F6000 X163.620 Y138.254
G1 F480 X163.620 Y166.746 E105.1580
G0 F6000 X166.044 Y166.746
G1 F480 X166.044 Y138.254 E109.8963
G0 F6000 X168.468 Y138.254
G1 F480 X168.468 Y166.746 E114.6345
G0 F6000 X170.892 Y166.509
G1 F480 X170.892 Y138.493 E119.2936
G0 F6000 X173.316 Y138.833
G1 F480 X173.316 Y166.175 E123.8406
G0 F6000 X175.740 Y165.763
G1 F480 X175.740 Y139.247 E128.2502
G0 F6000 X178.164 Y140.182
G1 F480 X178.164 Y164.817 E132.3470
G0 F6000 X180.588 Y162.581
G1 F480 X180.588 Y142.418 E135.7002
;PRINTING_TIME: 107
;REMAINING_TIME: 8312
M106 S255
;LAYER:-2
;Z:1.000
;HEIGHT:0.500
;PRINTING: NON-OBJECT
;PRINTING_ID: -1
G0 F300 Z1.000
G0 F6000 X180.682 Y141.998
;TYPE:RAFT
;WIDTH:0.800
G1 F960 X181.518 Y142.858 E135.8996
G1 X181.836 Y143.219 E135.9796
G1 X182.229 Y143.789 E136.0948
G1 X182.460 Y144.240 E136.1790
G1 X182.594 Y144.582 E136.2401
G1 X182.774 Y145.252 E136.3555
G1 X182.841 Y145.747 E136.4386
G1 X182.858 Y146.121 E136.5008
G1 X182.856 Y158.938 E138.6323
G1 X182.813 Y159.506 E138.7270
G1 X182.722 Y159.996 E138.8099
G1 X182.562 Y160.512 E138.8997
G1 X182.436 Y160.813 E138.9540
G1 X182.174 Y161.301 E139.0461
G1 X181.781 Y161.850 E139.1584
G1 X181.518 Y162.144 E139.2240
G1 X180.640 Y163.042 E139.4329
G1 X179.872 Y163.950 E139.6306
G1 X179.493 Y164.348 E139.7220
G1 X179.091 Y164.685 E139.8093
G1 X178.794 Y164.887 E139.8690
G1 X178.206 Y165.201 E139.9798
G1 X176.892 Y165.698 E140.2135
G1 X176.024 Y166.049 E140.3692
G1 X175.489 Y166.221 E140.4626
G1 X174.798 Y166.355 E140.5797
G1 X172.518 Y166.634 E140.9617
G1 X169.712 Y167.045 E141.4333
G1 X168.900 Y167.105 E141.5687
G1 X136.101 Y167.106 E147.0232
G1 X135.302 Y167.047 E147.1564
G1 X132.421 Y166.622 E147.6407
G1 X130.135 Y166.338 E148.0238
G1 X129.660 Y166.255 E148.1040
G1 X128.901 Y166.024 E148.2359
G1 X127.921 Y165.624 E148.4120
G1 X127.006 Y165.285 E148.5743
G1 X126.479 Y165.047 E148.6704
G1 X126.024 Y164.774 E148.7587
G1 X125.739 Y164.562 E148.8177
G1 X125.244 Y164.105 E148.9298
G1 X124.320 Y163.004 E149.1688
G1 X123.485 Y162.144 E149.3681
G1 X123.162 Y161.776 E149.4496
G1 X122.773 Y161.211 E149.5636
G1 X122.539 Y160.754 E149.6490
G1 X122.408 Y160.418 E149.7090
G1 X122.228 Y159.748 E149.8244
G1 X122.161 Y159.253 E149.9074
G1 X122.144 Y158.879 E149.9697
G1 X122.143 Y146.169 E152.0834
G1 X122.189 Y145.495 E152.1957
G1 X122.280 Y145.004 E152.2788
G1 X122.439 Y144.492 E152.3679
G1 X122.646 Y144.023 E152.4532
G1 X122.904 Y143.577 E152.5389
G1 X123.217 Y143.155 E152.6262
G1 X123.493 Y142.846 E152.6951
G1 X124.362 Y141.958 E152.9018
G1 X125.067 Y141.121 E153.0838
G1 X125.399 Y140.758 E153.1656
G1 X125.907 Y140.318 E153.2773
G1 X126.350 Y140.028 E153.3654
G1 X126.699 Y139.843 E153.4311
G1 X128.979 Y138.951 E153.8382
G1 X129.523 Y138.777 E153.9332
G1 X130.211 Y138.643 E154.0498
G1 X132.504 Y138.363 E154.4339
G1 X135.294 Y137.954 E154.9029
G1 X136.103 Y137.895 E155.0378
G1 X168.901 Y137.894 E160.4921
G1 X169.692 Y137.952 E160.6240
G1 X172.585 Y138.379 E161.1103
G1 X174.893 Y138.666 E161.4971
G1 X175.344 Y138.745 E161.5732
G1 X176.187 Y139.009 E161.7201
G1 X177.000 Y139.344 E161.8664
G1 X177.938 Y139.693 E162.0328
G1 X178.400 Y139.892 E162.1165
G1 X178.853 Y140.145 E162.2027
G1 X179.268 Y140.442 E162.2876
G1 X179.760 Y140.899 E162.3993
G1 X180.682 Y141.998 E162.6378
G0 F6000 X180.588 Y142.418
G1 F960 X180.588 Y162.581 E165.9910
G0 F6000 X178.164 Y164.817
G1 F960 X178.164 Y140.182 E170.0878
G0 F6000 X175.740 Y139.247
G1 F960 X175.740 Y165.763 E174.4974
G0 F6000 X173.316 Y166.175
G1 F960 X173.316 Y138.833 E179.0444
G0 F6000 X170.892 Y138.493
G1 F960 X170.892 Y166.509 E183.7035
G0 F6000 X168.468 Y166.746
G1 F960 X168.468 Y138.254 E188.4417
G0 F6000 X166.044 Y138.254
G1 F960 X166.044 Y166.746 E193.1800
G0 F6000 X163.620 Y166.746
G1 F960 X163.620 Y138.254 E197.9182
G0 F6000 X161.196 Y138.254
G1 F960 X161.196 Y166.746 E202.6564
G0 F6000 X158.772 Y166.746
G1 F960 X158.772 Y138.254 E207.3947
G0 F6000 X156.348 Y138.254
G1 F960 X156.348 Y166.746 E212.1329
G0 F6000 X153.924 Y166.746
G1 F960 X153.924 Y138.254 E216.8712
G0 F6000 X151.500 Y138.254
G1 F960 X151.500 Y166.746 E221.6094
G0 F6000 X149.076 Y166.746
G1 F960 X149.076 Y138.254 E226.3476
G0 F6000 X146.652 Y138.254
G1 F960 X146.652 Y166.746 E231.0859
G0 F6000 X144.228 Y166.746
G1 F960 X144.228 Y138.254 E235.8241
G0 F6000 X141.804 Y138.254
G1 F960 X141.804 Y166.746 E240.5624
G0 F6000 X139.380 Y166.746
G1 F960 X139.380 Y138.254 E245.3006
G0 F6000 X136.956 Y138.254
G1 F960 X136.956 Y166.746 E250.0388
G0 F6000 X134.532 Y166.569
G1 F960 X134.532 Y138.429 E254.7185
G0 F6000 X132.108 Y138.773
G1 F960 X132.108 Y166.220 E259.2830
G0 F6000 X129.684 Y165.885
G1 F960 X129.684 Y139.112 E263.7354
G0 F6000 X127.260 Y140.010
G1 F960 X127.260 Y164.995 E267.8904
G0 F6000 X124.836 Y163.059
G1 F960 X124.836 Y141.953 E271.4003
;PRINTING_TIME: 161
;REMAINING_TIME: 8258
;LAYER:-1
;Z:1.380
;HEIGHT:0.380
;PRINTING: NON-OBJECT
;PRINTING_ID: -1
G0 F300 Z1.380
G0 F6000 X132.746 Y138.600
;TYPE:RAFT
;WIDTH:0.600
G1 F1800 X172.237 Y138.600 E275.1437
G0 F6000 X177.452 Y139.800
G1 F1800 X127.549 Y139.800 E279.8741
G0 F6000 X125.541 Y141.000
G1 F1800 X179.473 Y141.000 E284.9864
G0 F6000 X180.503 Y142.200
G1 F1800 X124.503 Y142.200 E290.2947
G0 F6000 X123.371 Y143.400
G1 F1800 X181.634 Y143.400 E295.8175
G0 F6000 X182.313 Y144.600
G1 F1800 X122.688 Y144.600 E301.4695
G0 F6000 X122.438 Y145.800
G1 F1800 X182.573 Y145.800 E307.1698
G0 F6000 X182.587 Y147.000
G1 F1800 X122.412 Y147.000 E312.8738
G0 F6000 X122.412 Y148.200
G1 F1800 X182.587 Y148.200 E318.5779
G0 F6000 X182.587 Y149.400
G1 F1800 X122.412 Y149.400 E324.2820
G0 F6000 X122.412 Y150.600
G1 F1800 X182.587 Y150.600 E329.9860
G0 F6000 X182.587 Y151.800
G1 F1800 X122.412 Y151.800 E335.6901
G0 F6000 X122.412 Y153.000
G1 F1800 X182.586 Y153.000 E341.3941
G0 F6000 X182.586 Y154.200
G1 F1800 X122.412 Y154.200 E347.0981
G0 F6000 X122.412 Y155.400
G1 F1800 X182.586 Y155.400 E352.8020
G0 F6000 X182.586 Y156.600
G1 F1800 X122.412 Y156.600 E358.5060
G0 F6000 X122.412 Y157.800
G1 F1800 X182.586 Y157.800 E364.2100
G0 F6000 X182.580 Y159.000
G1 F1800 X122.419 Y159.000 E369.9127
G0 F6000 X122.627 Y160.200
G1 F1800 X182.375 Y160.200 E375.5763
G0 F6000 X181.770 Y161.400
G1 F1800 X123.230 Y161.400 E381.1254
G0 F6000 X124.302 Y162.600
G1 F1800 X180.693 Y162.600 E386.4708
G0 F6000 X179.641 Y163.800
G1 F1800 X125.339 Y163.800 E391.6182
G0 F6000 X127.027 Y165.000
G1 F1800 X177.973 Y165.000 E396.4474
G0 F6000 X173.845 Y166.200
G1 F1800 X131.209 Y166.200 E400.4889
;PRINTING_TIME: 209
;REMAINING_TIME: 8209
;LAYER:-1
;Z:1.600
;HEIGHT:0.220
;PRINTING: NON-OBJECT
;PRINTING_ID: -1
G0 F300 Z1.600
G0 F6000 X123.890 Y162.304
;TYPE:RAFT
;WIDTH:0.400
G1 F3600 X122.410 Y159.741 E400.6763
G0 F6000 X122.323 Y158.648
G1 F3600 X125.432 Y164.033 E401.0698
G0 F6000 X126.420 Y164.803
G1 F3600 X122.323 Y157.705 E401.5886
G0 F6000 X122.323 Y156.763
G1 F3600 X127.166 Y165.153 E402.2017
G0 F6000 X127.858 Y165.409
G1 F3600 X122.322 Y155.821 E402.9025
G0 F6000 X122.322 Y154.879
G1 F3600 X128.566 Y165.693 E403.6928
G0 F6000 X129.255 Y165.944
G1 F3600 X122.322 Y153.937 E404.5704
G0 F6000 X122.322 Y152.995
G1 F3600 X129.896 Y166.113 E405.5291
G0 F6000 X130.491 Y166.201
G1 F3600 X122.322 Y152.052 E406.5632
G0 F6000 X122.322 Y151.110
G1 F3600 X131.076 Y166.273 E407.6714
G0 F6000 X131.662 Y166.346
G1 F3600 X122.322 Y150.168 E408.8538
G0 F6000 X122.322 Y149.226
G1 F3600 X132.248 Y166.419 E410.1103
G0 F6000 X132.840 Y166.501
G1 F3600 X122.322 Y148.284 E411.4418
G0 F6000 X122.322 Y147.342
G1 F3600 X133.434 Y166.589 E412.8484
G0 F6000 X134.028 Y166.676
G1 F3600 X122.321 Y146.399 E414.3304
G0 F6000 X122.365 Y145.533
G1 F3600 X134.623 Y166.764 E415.8821
G0 F6000 X135.218 Y166.852
G1 F3600 X122.515 Y144.850 E417.4901
G0 F6000 X122.728 Y144.278
G1 F3600 X135.791 Y166.903 E419.1437
G0 F6000 X136.348 Y166.925
G1 F3600 X122.989 Y143.787 E420.8348
G0 F6000 X123.286 Y143.361
G1 F3600 X136.891 Y166.925 E422.5570
G0 F6000 X137.435 Y166.925
G1 F3600 X123.611 Y142.981 E424.3069
G0 F6000 X123.953 Y142.631
G1 F3600 X137.979 Y166.925 E426.0825
G0 F6000 X138.523 Y166.925
G1 F3600 X124.295 Y142.282 E427.8835
G0 F6000 X124.629 Y141.918
G1 F3600 X139.067 Y166.925 E429.7112
G0 F6000 X139.610 Y166.925
G1 F3600 X124.952 Y141.536 E431.5667
G0 F6000 X125.277 Y141.156
G1 F3600 X140.154 Y166.925 E433.4501
G0 F6000 X140.698 Y166.925
G1 F3600 X125.618 Y140.805 E435.3590
G0 F6000 X125.980 Y140.490
G1 F3600 X141.242 Y166.925 E437.2911
G0 F6000 X141.786 Y166.925
G1 F3600 X126.372 Y140.227 E439.2423
G0 F6000 X126.786 Y140.002
G1 F3600 X142.330 Y166.925 E441.2100
G0 F6000 X142.874 Y166.925
G1 F3600 X127.229 Y139.828 E443.1904
G0 F6000 X127.673 Y139.655
G1 F3600 X143.417 Y166.924 E445.1834
G0 F6000 X143.961 Y166.924
G1 F3600 X128.117 Y139.481 E447.1891
G0 F6000 X128.561 Y139.308
G1 F3600 X144.505 Y166.924 E449.2074
G0 F6000 X145.049 Y166.924
G1 F3600 X129.004 Y139.134 E451.2385
G0 F6000 X129.462 Y138.985
G1 F3600 X145.593 Y166.925 E453.2805
G0 F6000 X146.137 Y166.925
G1 F3600 X129.944 Y138.878 E455.3303
G0 F6000 X130.441 Y138.796
G1 F3600 X146.681 Y166.925 E457.3861
G0 F6000 X147.225 Y166.925
G1 F3600 X130.949 Y138.734 E459.4465
G0 F6000 X131.456 Y138.672
G1 F3600 X147.768 Y166.925 E461.5114
G0 F6000 X148.312 Y166.925
G1 F3600 X131.965 Y138.610 E463.5808
G0 F6000 X132.473 Y138.548
G1 F3600 X148.856 Y166.925 E465.6547
G0 F6000 X149.400 Y166.925
G1 F3600 X132.975 Y138.475 E467.7340
G0 F6000 X133.476 Y138.402
G1 F3600 X149.944 Y166.924 E469.8185
G0 F6000 X150.487 Y166.924
G1 F3600 X133.978 Y138.329 E471.9084
G0 F6000 X134.479 Y138.255
G1 F3600 X151.031 Y166.924 E474.0037
G0 F6000 X151.575 Y166.924
G1 F3600 X134.981 Y138.182 E476.1043
G0 F6000 X135.489 Y138.120
G1 F3600 X152.119 Y166.924 E478.2095
G0 F6000 X152.663 Y166.924
G1 F3600 X136.010 Y138.081 E480.3175
G0 F6000 X136.550 Y138.075
G1 F3600 X153.207 Y166.925 E482.4260
G0 F6000 X153.751 Y166.925
G1 F3600 X137.094 Y138.074 E484.5346
G0 F6000 X137.638 Y138.074
G1 F3600 X154.295 Y166.925 E486.6432
G0 F6000 X154.839 Y166.925
G1 F3600 X138.182 Y138.074 E488.7518
G0 F6000 X138.725 Y138.074
G1 F3600 X155.382 Y166.925 E490.8604
G0 F6000 X155.926 Y166.924
G1 F3600 X139.269 Y138.074 E492.9689
G0 F6000 X139.813 Y138.074
G1 F3600 X156.470 Y166.924 E495.0775
G0 F6000 X157.014 Y166.924
G1 F3600 X140.357 Y138.074 E497.1860
G0 F6000 X140.901 Y138.074
G1 F3600 X157.558 Y166.924 E499.2945
G0 F6000 X158.101 Y166.924
G1 F3600 X141.445 Y138.074 E501.4031
G0 F6000 X141.989 Y138.074
G1 F3600 X158.645 Y166.924 E503.5116
G0 F6000 X159.189 Y166.924
G1 F3600 X142.533 Y138.074 E505.6201
G0 F6000 X143.077 Y138.074
G1 F3600 X159.733 Y166.924 E507.7286
G0 F6000 X160.277 Y166.924
G1 F3600 X143.621 Y138.075 E509.8370
G0 F6000 X144.164 Y138.075
G1 F3600 X160.821 Y166.924 E511.9455
G0 F6000 X161.365 Y166.925
G1 F3600 X144.708 Y138.074 E514.0541
G0 F6000 X145.252 Y138.074
G1 F3600 X161.908 Y166.924 E516.1626
G0 F6000 X162.452 Y166.924
G1 F3600 X145.796 Y138.074 E518.2711
G0 F6000 X146.340 Y138.074
G1 F3600 X162.996 Y166.924 E520.3796
G0 F6000 X163.540 Y166.924
G1 F3600 X146.883 Y138.074 E522.4881
G0 F6000 X147.427 Y138.074
G1 F3600 X164.084 Y166.924 E524.5967
G0 F6000 X164.628 Y166.924
G1 F3600 X147.971 Y138.074 E526.7052
G0 F6000 X148.515 Y138.074
G1 F3600 X165.172 Y166.924 E528.8137
G0 F6000 X165.716 Y166.924
G1 F3600 X149.059 Y138.074 E530.9223
G0 F6000 X149.603 Y138.074
G1 F3600 X166.259 Y166.924 E533.0308
G0 F6000 X166.803 Y166.924
G1 F3600 X150.147 Y138.074 E535.1393
G0 F6000 X150.691 Y138.074
G1 F3600 X167.347 Y166.924 E537.2478
G0 F6000 X167.891 Y166.924
G1 F3600 X151.235 Y138.074 E539.3563
