;Sliced by ideaMaker 5.2.3.8580, 2025-05-01 14:40:16 UTC+0900
;Slicer Version: 5.2.3.8580
;Dimension: 305.000 305.000 300.000 0.400 0.400
;Plate Shape: 0
;Origin Center: 0
;Extruder Offset #1: 0.000 0.000
;Filament Diameter #1: 1.750
;Filament Diameter #2: 1.750
;Filament Compensation #1: 100.000
;Filament Compensation #2: 100.000
;Filament Density #1: 1210.000
;Filament Density #2: 1210.000
;Filament Type #1: POLYFLEX
;Filament Type #2: POLYFLEX
;Filament Name #1: [Polymaker] PolyFlex TPU95 1.75mm
;Filament Name #2: [Polymaker] PolyFlex TPU95 1.75mm
;Filament #1: PolyFlex 1.75mm
;Filament #2: PolyFlex 1.75mm
;Printer Type: RAISE3D Pro2
;Firmware: Raise3D Pro2
;Bounding Box: 97.500 207.500 136.983 168.017 0.000 10.800
;Model Gap: 0.000
M221 T0 S100.00
M140 S60.00
M104 T0 S225.00
M109 T0 S225.00
T0
M190 S60.00
G21
G90
M82
M107
G28 X0 Y0
G28 Z0
G1 Z15.0 F300
G92 E0
G1 F140 E29
G1 X20 Y0 F140 E30
G92 E0
G1 F6000.0
M117 Printing...
M1001
;TOTAL_NUM: 1
;PRINTING_TIME: 0
;REMAINING_TIME: 4059
;LAYER:0
;Z:0.200
;HEIGHT:0.200
M106 S0
;PRINTING: ??????????????????????????????????????????IdeaMaker?????????
;PRINTING_ID: 0
G1 F2400 E-1.5000
M204 S500.00
G0 F6000 X98.250 Y144.767
G0 F300 Z0.200
;TYPE:WALL-INNER
;WIDTH:0.500
G1 F1500 E0.0000
G1 F900 X145.534 Y144.767 E1.9658
G1 X145.591 Y144.936 E1.9733
G1 X145.370 Y145.104 E1.9848
G1 X145.121 Y145.428 E2.0018
G1 X144.965 Y145.805 E2.0187
G1 X144.913 Y146.207 E2.0356
G1 X144.965 Y146.610 E2.0525
G1 X145.121 Y146.987 E2.0695
G1 X145.370 Y147.311 E2.0864
G1 X145.692 Y147.557 E2.1033
G1 X146.005 Y147.687 E2.1174
G1 X146.453 Y147.769 E2.1363
G1 X146.877 Y147.712 E2.1541
G1 X147.249 Y147.557 E2.1709
G1 X147.571 Y147.312 E2.1877
G1 X147.743 Y147.089 E2.1994
G1 X147.911 Y147.147 E2.2068
G1 X147.911 Y163.900 E2.9033
G1 X147.743 Y163.958 E2.9107
G1 X147.573 Y163.736 E2.9223
G1 X147.251 Y163.489 E2.9392
G1 X146.874 Y163.332 E2.9562
G1 X146.470 Y163.280 E2.9731
G1 X146.134 Y163.324 E2.9872
G1 X145.706 Y163.477 E3.0061
G1 X145.369 Y163.737 E3.0238
G1 X145.122 Y164.058 E3.0406
G1 X144.965 Y164.435 E3.0576
G1 X144.913 Y164.838 E3.0745
G1 X144.965 Y165.241 E3.0914
G1 X145.122 Y165.618 E3.1084
G1 X145.369 Y165.940 E3.1252
G1 X145.547 Y166.076 E3.1345
G1 X145.489 Y166.244 E3.1419
G1 X100.671 Y166.244 E5.0052
G1 X100.613 Y166.076 E5.0126
G1 X100.791 Y165.940 E5.0219
G1 X101.038 Y165.618 E5.0388
G1 X101.195 Y165.241 E5.0558
G1 X101.245 Y164.857 E5.0719
G1 X101.197 Y164.440 E5.0893
G1 X101.039 Y164.058 E5.1065
G1 X100.791 Y163.736 E5.1234
G1 X100.469 Y163.489 E5.1403
G1 X100.091 Y163.332 E5.1573
G1 X99.688 Y163.280 E5.1742
G1 X99.351 Y163.324 E5.1883
G1 X98.925 Y163.477 E5.2072
G1 X98.586 Y163.737 E5.2249
G1 X98.418 Y163.956 E5.2364
G1 X98.250 Y163.899 E5.2438
G1 X98.250 Y144.767 E6.0392
G1 F2400 E4.5392
G0 F6000 X97.750 Y144.267
;TYPE:WALL-OUTER
;WIDTH:0.500
G1 F1500 E6.0392
G1 F900 X148.411 Y144.267 E8.1454
G1 X148.411 Y166.744 E9.0799
G1 X97.750 Y166.744 E11.1862
G1 X97.750 Y144.267 E12.1206
G1 F2400 E10.6206
G0 F6000 X98.250 Y166.244
;TYPE:WALL-INNER
;WIDTH:0.500
G1 F1500 E12.1206
G1 F900 X98.250 Y165.777 E12.1401
G1 X98.418 Y165.720 E12.1474
G1 X98.586 Y165.940 E12.1589
G1 X98.764 Y166.076 E12.1683
G1 X98.707 Y166.244 E12.1756
G1 X98.250 Y166.244 E12.1946
G1 F2400 E10.6946
G0 F6000 X147.911 Y166.244
G1 F1500 E12.1946
G1 F900 X147.453 Y166.244 E12.2137
G1 X147.395 Y166.076 E12.2211
G1 X147.573 Y165.940 E12.2304
G1 X147.743 Y165.718 E12.2420
G1 X147.911 Y165.776 E12.2494
G1 X147.911 Y166.244 E12.2688
G1 F2400 E10.7688
G0 F6000 X147.911 Y144.767
G1 F1500 E12.2688
G1 F900 X147.911 Y145.269 E12.2897
G1 X147.743 Y145.326 E12.2971
G1 X147.572 Y145.104 E12.3087
G1 X147.351 Y144.936 E12.3203
G1 X147.408 Y144.767 E12.3277
G1 X147.911 Y144.767 E12.3486
G1 F2400 E10.8486
G0 F6000 X146.465 Y147.263
;TYPE:WALL-OUTER
;WIDTH:0.500
G1 F1500 E12.3486
G1 F900 X146.745 Y147.225 E12.3604
G1 X146.998 Y147.120 E12.3717
G1 X147.216 Y146.954 E12.3831
G1 X147.385 Y146.735 E12.3946
G1 X147.483 Y146.495 E12.4054
G1 X147.525 Y146.209 E12.4174
G1 X147.490 Y145.935 E12.4289
G1 X147.384 Y145.680 E12.4404
G1 X147.216 Y145.461 E12.4519
G1 X146.998 Y145.295 E12.4633
G1 X146.743 Y145.188 E12.4748
G1 X146.454 Y145.155 E12.4869
G1 X146.197 Y145.188 E12.4976
G1 X145.944 Y145.295 E12.5091
G1 X145.726 Y145.461 E12.5204
G1 X145.558 Y145.680 E12.5319
G1 X145.452 Y145.935 E12.5434
G1 X145.417 Y146.207 E12.5548
G1 X145.452 Y146.480 E12.5662
G1 X145.558 Y146.735 E12.5777
G1 X145.726 Y146.954 E12.5892
G1 X145.944 Y147.120 E12.6006
G1 X146.148 Y147.205 E12.6098
G1 X146.465 Y147.263 E12.6232
G1 F2400 E11.1232
G0 F6000 X145.949 Y163.921
G1 F1500 E12.6232
G1 F900 X145.726 Y164.093 E12.6349
G1 X145.558 Y164.311 E12.6463
G1 X145.452 Y164.565 E12.6578
G1 X145.417 Y164.838 E12.6692
G1 X145.452 Y165.111 E12.6807
G1 X145.558 Y165.365 E12.6921
G1 X145.726 Y165.583 E12.7035
G1 X145.944 Y165.751 E12.7150
G1 X146.197 Y165.856 E12.7264
G1 X146.455 Y165.891 E12.7372
G1 X146.743 Y165.857 E12.7493
G1 X146.998 Y165.751 E12.7607
G1 X147.216 Y165.583 E12.7722
G1 X147.384 Y165.365 E12.7836
G1 X147.490 Y165.111 E12.7951
G1 X147.525 Y164.838 E12.8065
G1 X147.490 Y164.565 E12.8180
G1 X147.384 Y164.311 E12.8294
G1 X147.216 Y164.093 E12.8408
G1 X146.998 Y163.925 E12.8523
G1 X146.744 Y163.819 E12.8637
G1 X146.471 Y163.784 E12.8752
G1 X146.252 Y163.813 E12.8844
G1 X145.949 Y163.921 E12.8977
G1 F2400 E11.3977
G0 F6000 X100.602 Y164.311
G1 F1500 E12.8977
G1 F900 X100.434 Y164.093 E12.9092
G1 X100.216 Y163.925 E12.9206
G1 X99.961 Y163.819 E12.9321
G1 X99.689 Y163.784 E12.9435
G1 X99.469 Y163.813 E12.9527
G1 X99.167 Y163.921 E12.9661
G1 X98.943 Y164.093 E12.9778
G1 X98.776 Y164.311 E12.9892
G1 X98.671 Y164.564 E13.0006
G1 X98.636 Y164.822 E13.0114
G1 X98.670 Y165.110 E13.0235
G1 X98.776 Y165.365 E13.0350
G1 X98.943 Y165.583 E13.0464
G1 X99.162 Y165.751 E13.0579
G1 X99.415 Y165.856 E13.0692
G1 X99.673 Y165.891 E13.0801
G1 X99.959 Y165.857 E13.0920
G1 X100.216 Y165.751 E13.1036
G1 X100.434 Y165.583 E13.1150
G1 X100.602 Y165.365 E13.1265
G1 X100.708 Y165.111 E13.1379
G1 X100.741 Y164.854 E13.1487
G1 X100.708 Y164.567 E13.1607
G1 X100.602 Y164.311 E13.1722
G1 F2400 E11.6722
G0 F6000 X98.678 Y163.379
;TYPE:SOLID-FILL
;WIDTH:0.500
G1 F1500 E13.1722
G1 F900 X98.425 Y163.125 E13.1871
G0 F900 X98.425 Y162.418
G1 F900 X99.199 Y163.192 E13.2326
G0 F900 X99.835 Y163.121
G1 F900 X98.425 Y161.711 E13.3155
G0 F900 X98.425 Y161.003
G1 F900 X103.489 Y166.068 E13.6133
G0 F900 X102.782 Y166.068
G1 F900 X101.401 Y164.687 E13.6945
G0 F900 X101.343 Y165.337
G1 F900 X102.075 Y166.068 E13.7375
G0 F900 X101.367 Y166.068
G1 F900 X101.135 Y165.835 E13.7512
G1 F2400 E12.2512
G0 F6000 X104.196 Y166.068
G1 F1500 E13.7512
G1 F900 X98.425 Y160.296 E14.0905
G0 F900 X98.425 Y159.589
G1 F900 X104.903 Y166.068 E14.4714
G0 F900 X105.610 Y166.068
G1 F900 X98.425 Y158.882 E14.8939
G0 F900 X98.425 Y158.175
G1 F900 X106.317 Y166.068 E15.3580
G0 F900 X107.024 Y166.068
G1 F900 X98.425 Y157.468 E15.8636
G0 F900 X98.425 Y156.761
G1 F900 X107.731 Y166.068 E16.4108
G0 F900 X108.439 Y166.068
G1 F900 X98.425 Y156.054 E16.9996
G0 F900 X98.425 Y155.347
G1 F900 X109.146 Y166.068 E17.6299
G0 F900 X109.853 Y166.068
G1 F900 X98.425 Y154.640 E18.3018
G0 F900 X98.425 Y153.932
G1 F900 X110.560 Y166.068 E19.0154
G0 F900 X111.267 Y166.068
G1 F900 X98.425 Y153.225 E19.7705
G0 F900 X98.425 Y152.518
G1 F900 X111.974 Y166.068 E20.5671
G0 F900 X112.681 Y166.068
G1 F900 X98.425 Y151.811 E21.4053
G0 F900 X98.425 Y151.104
G1 F900 X113.388 Y166.068 E22.2851
G0 F900 X114.095 Y166.068
G1 F900 X98.425 Y150.397 E23.2065
G0 F900 X98.425 Y149.690
G1 F900 X114.803 Y166.068 E24.1695
G0 F900 X115.510 Y166.068
G1 F900 X98.425 Y148.983 E25.1740
G0 F900 X98.425 Y148.276
G1 F900 X116.217 Y166.068 E26.2201
G0 F900 X116.924 Y166.068
G1 F900 X98.425 Y147.568 E27.3078
G0 F900 X98.425 Y146.861
G1 F900 X117.631 Y166.068 E28.4371
G0 F900 X118.338 Y166.068
G1 F900 X98.425 Y146.154 E29.6079
G0 F900 X98.425 Y145.447
G1 F900 X119.045 Y166.068 E30.8203
G0 F900 X119.752 Y166.068
G1 F900 X98.625 Y144.941 E32.0625
G0 F900 X99.332 Y144.941
G1 F900 X120.459 Y166.068 E33.3047
G0 F900 X121.166 Y166.068
G1 F900 X100.040 Y144.941 E34.5468
G0 F900 X100.747 Y144.941
G1 F900 X121.874 Y166.068 E35.7890
G0 F900 X122.581 Y166.068
G1 F900 X101.454 Y144.941 E37.0312
G0 F900 X102.161 Y144.941
G1 F900 X123.288 Y166.068 E38.2734
G0 F900 X123.995 Y166.068
G1 F900 X102.868 Y144.941 E39.5156
G0 F900 X103.575 Y144.941
G1 F900 X124.702 Y166.068 E40.7578
G0 F900 X125.409 Y166.068
G1 F900 X104.282 Y144.941 E42.0000
G0 F900 X104.989 Y144.941
G1 F900 X126.116 Y166.068 E43.2421
G0 F900 X126.823 Y166.068
G1 F900 X105.696 Y144.941 E44.4843
G0 F900 X106.404 Y144.941
G1 F900 X127.530 Y166.068 E45.7265
G0 F900 X128.238 Y166.068
G1 F900 X107.111 Y144.941 E46.9687
G0 F900 X107.818 Y144.941
G1 F900 X128.945 Y166.068 E48.2109
G0 F900 X129.652 Y166.068
G1 F900 X108.525 Y144.941 E49.4531
G0 F900 X109.232 Y144.941
G1 F900 X130.359 Y166.068 E50.6952
G0 F900 X131.066 Y166.068
G1 F900 X109.939 Y144.941 E51.9374
G0 F900 X110.646 Y144.941
G1 F900 X131.773 Y166.068 E53.1796
G0 F900 X132.480 Y166.068
G1 F900 X111.353 Y144.941 E54.4218
G0 F900 X112.060 Y144.941
G1 F900 X133.187 Y166.068 E55.6640
G0 F900 X133.894 Y166.068
G1 F900 X112.767 Y144.941 E56.9062
G0 F900 X113.475 Y144.941
G1 F900 X134.602 Y166.068 E58.1484
G0 F900 X135.309 Y166.068
G1 F900 X114.182 Y144.941 E59.3905
G0 F900 X114.889 Y144.941
G1 F900 X136.016 Y166.068 E60.6327
G0 F900 X136.723 Y166.068
G1 F900 X115.596 Y144.941 E61.8749
G0 F900 X116.303 Y144.941
G1 F900 X137.430 Y166.068 E63.1171
G0 F900 X138.137 Y166.068
G1 F900 X117.010 Y144.941 E64.3593
G0 F900 X117.717 Y144.941
G1 F900 X138.844 Y166.068 E65.6015
G0 F900 X139.551 Y166.068
G1 F900 X118.424 Y144.941 E66.8437
G0 F900 X119.131 Y144.941
G1 F900 X140.258 Y166.068 E68.0859
G0 F900 X140.965 Y166.068
G1 F900 X119.839 Y144.941 E69.3280
G0 F900 X120.546 Y144.941
G1 F900 X141.673 Y166.068 E70.5702
G0 F900 X142.380 Y166.068
G1 F900 X121.253 Y144.941 E71.8124
G0 F900 X121.960 Y144.941
G1 F900 X143.087 Y166.068 E73.0546
G0 F900 X143.794 Y166.068
G1 F900 X122.667 Y144.941 E74.2968
G0 F900 X123.374 Y144.941
G1 F900 X144.501 Y166.068 E75.5389
G0 F900 X145.058 Y165.917
G1 F900 X124.081 Y144.941 E76.7723
G0 F900 X124.788 Y144.941
G1 F900 X144.743 Y164.895 E77.9455
G0 F900 X144.838 Y164.284
G1 F900 X125.495 Y144.941 E79.0828
G0 F900 X126.203 Y144.941
G1 F900 X145.082 Y163.821 E80.1929
G0 F900 X145.433 Y163.464
G1 F900 X126.910 Y144.941 E81.2819
G0 F900 X127.617 Y144.941
G1 F900 X145.898 Y163.222 E82.3568
G0 F900 X146.487 Y163.104
G1 F900 X128.324 Y144.941 E83.4247
G0 F900 X129.031 Y144.941
G1 F900 X147.487 Y163.397 E84.5099
G0 F900 X147.735 Y162.938
G1 F900 X129.738 Y144.941 E85.5680
G0 F900 X130.445 Y144.941
G1 F900 X147.735 Y162.231 E86.5846
G0 F900 X147.735 Y161.524
G1 F900 X131.152 Y144.941 E87.5596
G0 F900 X131.859 Y144.941
G1 F900 X147.735 Y160.817 E88.4931
G0 F900 X147.735 Y160.110
G1 F900 X132.566 Y144.941 E89.3849
G0 F900 X133.274 Y144.941
G1 F900 X147.735 Y159.403 E90.2352
G0 F900 X147.735 Y158.695
G1 F900 X133.981 Y144.941 E91.0439
G0 F900 X134.688 Y144.941
G1 F900 X147.735 Y157.988 E91.8110
G0 F900 X147.735 Y157.281
G1 F900 X135.395 Y144.941 E92.5366
G0 F900 X136.102 Y144.941
G1 F900 X147.735 Y156.574 E93.2205
G0 F900 X147.735 Y155.867
G1 F900 X136.809 Y144.941 E93.8629
G0 F900 X137.516 Y144.941
G1 F900 X147.735 Y155.160 E94.4638
G0 F900 X147.735 Y154.453
G1 F900 X138.223 Y144.941 E95.0231
G0 F900 X138.930 Y144.941
G1 F900 X147.735 Y153.746 E95.5408
G0 F900 X147.735 Y153.039
G1 F900 X139.638 Y144.941 E96.0169
G0 F900 X140.345 Y144.941
G1 F900 X147.735 Y152.332 E96.4514
G0 F900 X147.735 Y151.624
G1 F900 X141.052 Y144.941 E96.8443
G0 F900 X141.759 Y144.941
G1 F900 X147.735 Y150.917 E97.1957
G0 F900 X147.735 Y150.210
G1 F900 X142.466 Y144.941 E97.5055
G0 F900 X143.173 Y144.941
G1 F900 X144.780 Y146.548 E97.6000
G0 F900 X144.782 Y145.843
G1 F900 X143.880 Y144.941 E97.6530
G0 F900 X144.587 Y144.941
G1 F900 X144.973 Y145.326 E97.6757
G1 F2400 E96.1757
G0 F6000 X146.116 Y147.884
G1 F1500 E97.6757
G1 F900 X147.735 Y149.503 E97.7709
G0 F900 X147.735 Y148.796
G1 F900 X146.833 Y147.894 E97.8239
G0 F900 X147.350 Y147.703
G1 F900 X147.735 Y148.089 E97.8466
G1 F2400 E96.3466
G0 F6000 X100.392 Y166.233
;TYPE:GAP-FILL
;WIDTH:0.438
G1 F1500 E97.8466
G1 F900 X100.046 Y166.296 E97.8594
G1 X99.691 Y166.317 E97.8723
;WIDTH:0.353
G1 X99.322 Y166.295 E97.8832
;WIDTH:0.411
G1 X98.985 Y166.230 E97.8949
G1 F2400 E96.3949
G0 F6000 X98.265 Y165.497
;WIDTH:0.442
G1 F1500 E97.8949
G1 F900 X98.213 Y165.199 E97.9060
;WIDTH:0.386
G1 X98.193 Y164.794 E97.9190
;WIDTH:0.448
G1 X98.214 Y164.468 E97.9312
G1 X98.268 Y164.179 E97.9422
G1 F2400 E96.4422
G0 F6000 X145.768 Y166.229
;WIDTH:0.411
G1 F1500 E97.9422
G1 F900 X146.104 Y166.295 E97.9539
;WIDTH:0.353
G1 X146.473 Y166.317 E97.9647
;WIDTH:0.438
G1 X146.830 Y166.296 E97.9777
G1 X147.174 Y166.232 E97.9905
G1 F2400 E96.4905
G0 F6000 X147.876 Y165.489
;WIDTH:0.450
G1 F1500 E97.9905
G1 F900 X147.939 Y165.261 E97.9993
G1 X147.968 Y164.862 E98.0143
;WIDTH:0.386
G1 X147.946 Y164.472 E98.0268
;WIDTH:0.444
G1 X147.899 Y164.178 E98.0378
G1 F2400 E96.5378
G0 F6000 X147.654 Y146.783
;WIDTH:0.450
G1 F1500 E98.0378
G1 F900 X147.936 Y146.643 E98.0496
G1 X147.942 Y146.592 E98.0515
;WIDTH:0.386
G1 X147.968 Y146.186 E98.0646
;WIDTH:0.450
G1 X147.946 Y145.843 E98.0774
G1 X147.898 Y145.547 E98.0887
G1 F2400 E96.5887
G0 F6000 X147.130 Y144.775
;WIDTH:0.447
G1 F1500 E98.0887
G1 F900 X146.831 Y144.731 E98.0999
G1 X146.474 Y144.710 E98.1132
;WIDTH:0.388
G1 X146.103 Y144.731 E98.1252
;WIDTH:0.444
G1 X145.817 Y144.795 E98.1360
G1 F2400 E96.6360
G0 F6000 X152.517 Y164.984
;TYPE:WALL-INNER
;WIDTH:0.500
G1 F1500 E98.1360
G1 F900 X152.517 Y137.735 E99.2689
G1 X204.313 Y137.735 E101.4223
G1 X204.313 Y164.984 E102.5552
G1 X206.749 Y164.984 E102.6565
G1 X206.749 Y167.251 E102.7507
G1 X203.238 Y167.251 E102.8967
G1 X203.238 Y167.267 E102.8974
G1 X153.573 Y167.267 E104.9622
G1 X153.573 Y167.251 E104.9628
G1 X150.080 Y167.251 E105.1081
G1 X150.080 Y164.984 E105.2023
G1 X152.517 Y164.984 E105.3036
G1 F2400 E103.8036
G0 F6000 X150.514 Y164.484
;TYPE:WALL-OUTER
;WIDTH:0.500
G1 F1500 E105.3036
G1 F900 X152.017 Y164.484 E105.3661
G1 X152.017 Y137.235 E106.4990
G1 X204.813 Y137.235 E108.6940
G1 X204.813 Y164.484 E109.8269
G1 X206.316 Y164.484 E109.8894
G1 X206.316 Y137.235 E111.0223
G1 X207.250 Y137.235 E111.0611
G1 X207.249 Y167.751 E112.3298
G1 X203.738 Y167.751 E112.4758
G1 X203.738 Y167.767 E112.4764
G1 X153.073 Y167.767 E114.5828
G1 X153.073 Y167.751 E114.5835
G1 X149.580 Y167.751 E114.7287
G1 X149.580 Y137.235 E115.9974
G1 X150.514 Y137.235 E116.0363
G1 X150.514 Y164.484 E117.1692
G1 F2400 E115.6692
G0 F6000 X150.047 Y164.724
;TYPE:GAP-FILL
;WIDTH:0.434
G1 F1500 E117.1692
G1 F900 X150.047 Y137.485 E118.1521
G1 F2400 E116.6521
G0 F6000 X150.254 Y166.871
;TYPE:SOLID-FILL
;WIDTH:0.500
G1 F1500 E118.1521
G1 F900 X150.458 Y167.075 E118.1641
G0 F900 X151.165 Y167.075
G1 F900 X150.254 Y166.164 E118.2177
G0 F900 X150.254 Y165.457
G1 F900 X151.872 Y167.075 E118.3128
G0 F900 X152.579 Y167.075
G1 F900 X150.662 Y165.158 E118.4255
G0 F900 X151.369 Y165.158
G1 F900 X153.286 Y167.075 E118.5382
G0 F900 X154.009 Y167.091
G1 F900 X152.076 Y165.158 E118.6519
G0 F900 X152.691 Y165.065
G1 F900 X154.717 Y167.091 E118.7710
G0 F900 X155.424 Y167.091
G1 F900 X152.691 Y164.358 E118.9317
G0 F900 X152.691 Y163.651
G1 F900 X156.131 Y167.091 E119.1340
G0 F900 X156.838 Y167.091
G1 F900 X152.691 Y162.944 E119.3778
G0 F900 X152.691 Y162.237
G1 F900 X157.545 Y167.091 E119.6632
G0 F900 X158.252 Y167.091
G1 F900 X152.691 Y161.530 E119.9902
G0 F900 X152.691 Y160.822
G1 F900 X158.959 Y167.091 E120.3587
G0 F900 X159.666 Y167.091
G1 F900 X152.691 Y160.115 E120.7689
G0 F900 X152.691 Y159.408
G1 F900 X160.373 Y167.091 E121.2206
G0 F900 X161.081 Y167.091
G1 F900 X152.691 Y158.701 E121.7139
G0 F900 X152.691 Y157.994
G1 F900 X161.788 Y167.091 E122.2487
G0 F900 X162.495 Y167.091
G1 F900 X152.691 Y157.287 E122.8252
