;Sliced by ideaMaker 5.2.3.8580, 2025-05-01 15:44:35 UTC+0900
;Slicer Version: 5.2.3.8580
;Dimension: 305.000 305.000 300.000 0.400 0.400
;Plate Shape: 0
;Origin Center: 0
;Extruder Offset #1: 0.000 0.000
;Filament Diameter #1: 1.750
;Filament Diameter #2: 1.750
;Filament Compensation #1: 90.000
;Filament Compensation #2: 90.000
;Filament Density #1: 1240.000
;Filament Density #2: 1240.000
;Filament Type #1: PLA
;Filament Type #2: PLA
;Filament Name #1: [Raise3D] Premium PLA 1.75mm
;Filament Name #2: [Raise3D] Premium PLA 1.75mm
;Filament #1: PLA 1.75mm
;Filament #2: PLA 1.75mm
;Printer Type: RAISE3D Pro2
;Firmware: Raise3D Pro2
;Bounding Box: 92.500 212.500 131.985 173.017 0.000 12.620
;Model Gap: 0.150
M221 T0 S90.00
M140 S60.00
M104 T0 S205.00
M109 T0 S205.00
T0
M190 S60.00
G21
G90
M82
M107
G28 X0 Y0
G28 Z0
G1 Z15.0 F300
G92 E0
G1 F140 E29
G1 X20 Y0 F140 E30
G92 E0
G1 F6000.0
M117 Printing...
M1001
;TOTAL_NUM: 1
;PRINTING_TIME: 0
;REMAINING_TIME: 4192
M106 S0
;LAYER:-2
;Z:0.500
;HEIGHT:0.500
;PRINTING: NON-OBJECT
;PRINTING_ID: -1
G1 F2400 E-1.5000
G0 F6000 X95.019 Y140.149
G0 F300 Z0.500
;TYPE:RAFT
;WIDTH:0.800
G1 F1500 E0.0000
G1 F480 X95.615 Y139.826 E0.1127
G1 X96.093 Y139.642 E0.1979
G1 X96.605 Y139.509 E0.2859
G1 X96.971 Y139.452 E0.3475
G1 X97.550 Y139.417 E0.4439
G1 X141.409 Y139.417 E7.7377
G1 X141.889 Y139.382 E7.8178
G1 X142.374 Y139.274 E7.9004
G1 X142.837 Y139.096 E7.9829
G1 X143.270 Y138.854 E8.0654
G1 X143.664 Y138.551 E8.1480
G1 X144.009 Y138.192 E8.2308
G1 X144.296 Y137.789 E8.3131
G1 X144.524 Y137.348 E8.3957
G1 X144.685 Y136.877 E8.4785
G1 X144.833 Y136.036 E8.6205
G1 X144.970 Y135.532 E8.7073
G1 X145.234 Y134.901 E8.8211
G1 X145.493 Y134.456 E8.9067
G1 X145.717 Y134.144 E8.9706
G1 X146.146 Y133.670 E9.0769
G1 X146.556 Y133.321 E9.1664
G1 X146.849 Y133.117 E9.2258
G1 X147.445 Y132.794 E9.3385
G1 X147.919 Y132.612 E9.4230
G1 X148.277 Y132.513 E9.4847
G1 X148.953 Y132.405 E9.5986
G1 X149.391 Y132.385 E9.6715
G1 X150.700 Y132.385 E9.8892
G1 X151.401 Y132.404 E10.0058
G1 X151.828 Y132.385 E10.0769
G1 X205.098 Y132.388 E18.9357
G1 X205.700 Y132.404 E19.0359
G1 X206.127 Y132.385 E19.1070
G1 X207.434 Y132.385 E19.3243
G1 X208.108 Y132.431 E19.4367
G1 X208.599 Y132.522 E19.5197
G1 X209.113 Y132.682 E19.6092
G1 X209.586 Y132.890 E19.6952
G1 X209.891 Y133.060 E19.7532
G1 X210.442 Y133.455 E19.8660
G1 X210.819 Y133.806 E19.9516
G1 X211.159 Y134.205 E20.0388
G1 X211.449 Y134.635 E20.1251
G1 X211.691 Y135.100 E20.2122
G1 X211.875 Y135.578 E20.2974
G1 X212.007 Y136.086 E20.3847
G1 X212.080 Y136.603 E20.4715
G1 X212.100 Y137.045 E20.5451
G1 X212.099 Y167.947 E25.6841
G1 X212.074 Y168.438 E25.7659
G1 X211.959 Y169.108 E25.8789
G1 X211.808 Y169.599 E25.9644
G1 X211.587 Y170.098 E26.0551
G1 X211.425 Y170.389 E26.1105
G1 X211.026 Y170.947 E26.2246
G1 X210.677 Y171.321 E26.3097
G1 X210.398 Y171.566 E26.3714
G1 X209.987 Y171.864 E26.4558
G1 X209.374 Y172.196 E26.5718
G1 X208.884 Y172.383 E26.6590
G1 X208.386 Y172.510 E26.7445
G1 X208.028 Y172.566 E26.8047
G1 X207.535 Y172.599 E26.8869
G1 X204.369 Y172.601 E27.4134
G1 X203.931 Y172.617 E27.4863
G1 X152.893 Y172.617 E35.9739
G1 X152.467 Y172.601 E36.0448
G1 X149.396 Y172.601 E36.5555
G1 X148.722 Y172.555 E36.6679
G1 X148.231 Y172.464 E36.7509
G1 X147.717 Y172.304 E36.8405
G1 X147.387 Y172.166 E36.8999
G1 X146.674 Y171.817 E37.0320
G1 X146.189 Y171.671 E37.1162
G1 X145.482 Y171.594 E37.2345
G1 X97.448 Y171.591 E45.2225
G1 X97.077 Y171.570 E45.2843
G1 X96.542 Y171.489 E45.3743
G1 X96.047 Y171.354 E45.4597
G1 X95.416 Y171.090 E45.5734
G1 X94.971 Y170.831 E45.6590
G1 X94.672 Y170.617 E45.7202
G1 X94.181 Y170.173 E45.8303
G1 X93.836 Y169.768 E45.9187
G1 X93.632 Y169.475 E45.9781
G1 X93.309 Y168.879 E46.0908
G1 X93.123 Y168.395 E46.1771
G1 X92.992 Y167.889 E46.2640
G1 X92.935 Y167.523 E46.3256
G1 X92.900 Y166.952 E46.4207
G1 X92.900 Y144.083 E50.2239
G1 X92.946 Y143.409 E50.3362
G1 X93.037 Y142.918 E50.4193
G1 X93.197 Y142.404 E50.5088
G1 X93.329 Y142.090 E50.5654
G1 X93.664 Y141.486 E50.6803
G1 X93.965 Y141.080 E50.7643
G1 X94.321 Y140.698 E50.8512
G1 X94.726 Y140.353 E50.9396
G1 X95.019 Y140.149 E50.9990
G0 F6000 X93.324 Y143.344
G1 F480 X93.324 Y167.682 E55.0464
G0 F6000 X95.748 Y170.838
G1 F480 X95.748 Y140.163 E60.1477
G0 F6000 X98.172 Y139.777
G1 F480 X98.172 Y171.231 E65.3785
G0 F6000 X100.596 Y171.231
G1 F480 X100.596 Y139.777 E70.6094
G0 F6000 X103.020 Y139.777
G1 F480 X103.020 Y171.231 E75.8402
G0 F6000 X105.444 Y171.231
G1 F480 X105.444 Y139.777 E81.0710
G0 F6000 X107.868 Y139.777
G1 F480 X107.868 Y171.231 E86.3018
G0 F6000 X110.292 Y171.231
G1 F480 X110.292 Y139.777 E91.5326
G0 F6000 X112.716 Y139.777
G1 F480 X112.716 Y171.231 E96.7635
G0 F6000 X115.140 Y171.232
G1 F480 X115.140 Y139.777 E101.9945
G0 F6000 X117.564 Y139.777
G1 F480 X117.564 Y171.232 E107.2254
G0 F6000 X119.988 Y171.232
G1 F480 X119.988 Y139.777 E112.4564
G0 F6000 X122.412 Y139.777
G1 F480 X122.412 Y171.232 E117.6874
G0 F6000 X124.836 Y171.232
G1 F480 X124.836 Y139.777 E122.9184
G0 F6000 X127.260 Y139.777
G1 F480 X127.260 Y171.232 E128.1494
G0 F6000 X129.684 Y171.233
G1 F480 X129.684 Y139.777 E133.3805
G0 F6000 X132.108 Y139.777
G1 F480 X132.108 Y171.233 E138.6117
G0 F6000 X134.532 Y171.233
G1 F480 X134.532 Y139.777 E143.8429
G0 F6000 X136.956 Y139.777
G1 F480 X136.956 Y171.233 E149.0740
G0 F6000 X139.380 Y171.233
G1 F480 X139.380 Y139.777 E154.3052
G0 F6000 X141.804 Y139.749
G1 F480 X141.804 Y171.233 E159.5410
G0 F6000 X144.228 Y171.233
G1 F480 X144.228 Y138.483 E164.9873
G1 F2400 E163.4873
G0 F6000 X146.652 Y133.712
G1 F1500 E164.9873
G1 F480 X146.652 Y171.434 E171.2605
G0 F6000 X149.076 Y172.218
G1 F480 X149.076 Y132.759 E177.8226
G0 F6000 X151.500 Y132.759
G1 F480 X151.500 Y172.241 E184.3885
G0 F6000 X153.924 Y172.257
G1 F480 X153.924 Y132.746 E190.9592
G0 F6000 X156.348 Y132.746
G1 F480 X156.348 Y172.257 E197.5299
G0 F6000 X158.772 Y172.257
G1 F480 X158.772 Y132.746 E204.1006
G0 F6000 X161.196 Y132.746
G1 F480 X161.196 Y172.257 E210.6713
G0 F6000 X163.620 Y172.257
G1 F480 X163.620 Y132.746 E217.2420
G0 F6000 X166.044 Y132.746
G1 F480 X166.044 Y172.257 E223.8127
G0 F6000 X168.468 Y172.257
G1 F480 X168.468 Y132.746 E230.3834
G0 F6000 X170.892 Y132.747
G1 F480 X170.892 Y172.257 E236.9539
G0 F6000 X173.316 Y172.257
G1 F480 X173.316 Y132.747 E243.5245
G0 F6000 X175.740 Y132.747
G1 F480 X175.740 Y172.257 E250.0950
G0 F6000 X178.164 Y172.257
G1 F480 X178.164 Y132.747 E256.6656
G0 F6000 X180.588 Y132.747
G1 F480 X180.588 Y172.257 E263.2361
G0 F6000 X183.012 Y172.257
G1 F480 X183.012 Y132.747 E269.8066
G0 F6000 X185.436 Y132.747
G1 F480 X185.436 Y172.257 E276.3772
G0 F6000 X187.860 Y172.257
G1 F480 X187.860 Y132.748 E282.9476
G0 F6000 X190.284 Y132.748
G1 F480 X190.284 Y172.257 E289.5179
G0 F6000 X192.708 Y172.257
G1 F480 X192.708 Y132.748 E296.0883
G0 F6000 X195.132 Y132.748
G1 F480 X195.132 Y172.257 E302.6587
G0 F6000 X197.556 Y172.257
G1 F480 X197.556 Y132.748 E309.2290
G0 F6000 X199.980 Y132.748
G1 F480 X199.980 Y172.257 E315.7994
G0 F6000 X202.404 Y172.257
G1 F480 X202.404 Y132.748 E322.3698
G0 F6000 X204.828 Y132.748
G1 F480 X204.828 Y172.241 E328.9375
G0 F6000 X207.252 Y172.240
G1 F480 X207.252 Y132.745 E335.5056
G0 F6000 X209.676 Y133.353
G1 F480 X209.676 Y171.624 E341.8700
;PRINTING_TIME: 264
;REMAINING_TIME: 3928
M106 S255
;LAYER:-2
;Z:1.000
;HEIGHT:0.500
;PRINTING: NON-OBJECT
;PRINTING_ID: -1
G0 F300 Z1.000
G0 F6000 X209.987 Y171.864
;TYPE:RAFT
;WIDTH:0.800
G1 F960 X209.374 Y172.196 E341.9860
G1 X208.884 Y172.383 E342.0732
G1 X208.386 Y172.510 E342.1587
G1 X208.028 Y172.566 E342.2189
G1 X207.535 Y172.599 E342.3011
G1 X204.369 Y172.601 E342.8276
G1 X203.931 Y172.617 E342.9005
G1 X152.893 Y172.617 E351.3881
G1 X152.467 Y172.601 E351.4590
G1 X149.396 Y172.601 E351.9697
G1 X148.722 Y172.555 E352.0821
G1 X148.231 Y172.464 E352.1651
G1 X147.717 Y172.304 E352.2547
G1 X147.387 Y172.166 E352.3141
G1 X146.674 Y171.817 E352.4462
G1 X146.189 Y171.671 E352.5304
G1 X145.482 Y171.594 E352.6487
G1 X97.448 Y171.591 E360.6368
G1 X97.077 Y171.570 E360.6985
G1 X96.542 Y171.489 E360.7885
G1 X96.047 Y171.354 E360.8739
G1 X95.416 Y171.090 E360.9876
G1 X94.971 Y170.831 E361.0732
G1 X94.672 Y170.617 E361.1344
G1 X94.181 Y170.173 E361.2445
G1 X93.836 Y169.768 E361.3329
G1 X93.632 Y169.475 E361.3923
G1 X93.309 Y168.879 E361.5051
G1 X93.123 Y168.395 E361.5913
G1 X92.992 Y167.889 E361.6782
G1 X92.935 Y167.523 E361.7398
G1 X92.900 Y166.952 E361.8349
G1 X92.900 Y144.083 E365.6381
G1 X92.946 Y143.409 E365.7504
G1 X93.037 Y142.918 E365.8335
G1 X93.197 Y142.404 E365.9230
G1 X93.329 Y142.090 E365.9796
G1 X93.664 Y141.486 E366.0945
G1 X93.965 Y141.080 E366.1785
G1 X94.321 Y140.698 E366.2654
G1 X94.726 Y140.353 E366.3539
G1 X95.019 Y140.149 E366.4132
G1 X95.615 Y139.826 E366.5260
G1 X96.093 Y139.642 E366.6111
G1 X96.605 Y139.509 E366.6991
G1 X96.971 Y139.452 E366.7607
G1 X97.550 Y139.417 E366.8572
G1 X141.409 Y139.417 E374.1510
G1 X141.889 Y139.382 E374.2310
G1 X142.374 Y139.274 E374.3136
G1 X142.837 Y139.096 E374.3961
G1 X143.270 Y138.854 E374.4786
G1 X143.664 Y138.551 E374.5613
G1 X144.009 Y138.192 E374.6441
G1 X144.296 Y137.789 E374.7263
G1 X144.524 Y137.348 E374.8089
G1 X144.685 Y136.877 E374.8917
G1 X144.833 Y136.036 E375.0337
G1 X144.970 Y135.532 E375.1205
G1 X145.234 Y134.901 E375.2343
G1 X145.493 Y134.456 E375.3199
G1 X145.717 Y134.144 E375.3838
G1 X146.146 Y133.670 E375.4901
G1 X146.556 Y133.321 E375.5797
G1 X146.849 Y133.117 E375.6390
G1 X147.445 Y132.794 E375.7518
G1 X147.919 Y132.612 E375.8362
G1 X148.277 Y132.513 E375.8980
G1 X148.953 Y132.405 E376.0118
G1 X149.391 Y132.385 E376.0847
G1 X150.700 Y132.385 E376.3024
G1 X151.401 Y132.404 E376.4190
G1 X151.828 Y132.385 E376.4901
G1 X205.098 Y132.388 E385.3490
G1 X205.700 Y132.404 E385.4491
G1 X206.127 Y132.385 E385.5202
G1 X207.434 Y132.385 E385.7375
G1 X208.108 Y132.431 E385.8499
G1 X208.599 Y132.522 E385.9329
G1 X209.113 Y132.682 E386.0225
G1 X209.586 Y132.890 E386.1084
G1 X209.891 Y133.060 E386.1664
G1 X210.442 Y133.455 E386.2792
G1 X210.819 Y133.806 E386.3649
G1 X211.159 Y134.205 E386.4520
G1 X211.449 Y134.635 E386.5383
G1 X211.691 Y135.100 E386.6255
G1 X211.875 Y135.578 E386.7106
G1 X212.007 Y136.086 E386.7979
G1 X212.080 Y136.603 E386.8848
G1 X212.100 Y137.045 E386.9583
G1 X212.099 Y167.947 E392.0974
G1 X212.074 Y168.438 E392.1791
G1 X211.959 Y169.108 E392.2922
G1 X211.808 Y169.599 E392.3776
G1 X211.587 Y170.098 E392.4684
G1 X211.425 Y170.389 E392.5237
G1 X211.026 Y170.947 E392.6378
G1 X210.677 Y171.321 E392.7229
G1 X210.398 Y171.566 E392.7846
G1 X209.987 Y171.864 E392.8691
G0 F6000 X209.676 Y171.624
G1 F960 X209.676 Y133.353 E399.2336
G0 F6000 X207.252 Y132.745
G1 F960 X207.252 Y172.240 E405.8016
G0 F6000 X204.828 Y172.241
G1 F960 X204.828 Y132.748 E412.3693
G0 F6000 X202.404 Y132.748
G1 F960 X202.404 Y172.257 E418.9397
G0 F6000 X199.980 Y172.257
G1 F960 X199.980 Y132.748 E425.5101
G0 F6000 X197.556 Y132.748
G1 F960 X197.556 Y172.257 E432.0804
G0 F6000 X195.132 Y172.257
G1 F960 X195.132 Y132.748 E438.6508
G0 F6000 X192.708 Y132.748
G1 F960 X192.708 Y172.257 E445.2212
G0 F6000 X190.284 Y172.257
G1 F960 X190.284 Y132.748 E451.7916
G0 F6000 X187.860 Y132.748
G1 F960 X187.860 Y172.257 E458.3619
G0 F6000 X185.436 Y172.257
G1 F960 X185.436 Y132.747 E464.9325
G0 F6000 X183.012 Y132.747
G1 F960 X183.012 Y172.257 E471.5030
G0 F6000 X180.588 Y172.257
G1 F960 X180.588 Y132.747 E478.0735
G0 F6000 X178.164 Y132.747
G1 F960 X178.164 Y172.257 E484.6441
G0 F6000 X175.740 Y172.257
G1 F960 X175.740 Y132.747 E491.2146
G0 F6000 X173.316 Y132.747
G1 F960 X173.316 Y172.257 E497.7852
G0 F6000 X170.892 Y172.257
G1 F960 X170.892 Y132.747 E504.3557
G0 F6000 X168.468 Y132.746
G1 F960 X168.468 Y172.257 E510.9264
G0 F6000 X166.044 Y172.257
G1 F960 X166.044 Y132.746 E517.4971
G0 F6000 X163.620 Y132.746
G1 F960 X163.620 Y172.257 E524.0678
G0 F6000 X161.196 Y172.257
G1 F960 X161.196 Y132.746 E530.6385
G0 F6000 X158.772 Y132.746
G1 F960 X158.772 Y172.257 E537.2092
G0 F6000 X156.348 Y172.257
G1 F960 X156.348 Y132.746 E543.7799
G0 F6000 X153.924 Y132.746
G1 F960 X153.924 Y172.257 E550.3506
G0 F6000 X151.500 Y172.241
G1 F960 X151.500 Y132.759 E556.9165
G0 F6000 X149.076 Y132.759
G1 F960 X149.076 Y172.218 E563.4786
G0 F6000 X146.652 Y171.434
G1 F960 X146.652 Y133.712 E569.7518
G1 F2400 E568.2518
G0 F6000 X144.228 Y138.483
G1 F1500 E569.7518
G1 F960 X144.228 Y171.233 E575.1981
G0 F6000 X141.804 Y171.233
G1 F960 X141.804 Y139.749 E580.4339
G0 F6000 X139.380 Y139.777
G1 F960 X139.380 Y171.233 E585.6651
G0 F6000 X136.956 Y171.233
G1 F960 X136.956 Y139.777 E590.8962
G0 F6000 X134.532 Y139.777
G1 F960 X134.532 Y171.233 E596.1274
G0 F6000 X132.108 Y171.233
G1 F960 X132.108 Y139.777 E601.3586
G0 F6000 X129.684 Y139.777
G1 F960 X129.684 Y171.233 E606.5897
G0 F6000 X127.260 Y171.232
G1 F960 X127.260 Y139.777 E611.8207
G0 F6000 X124.836 Y139.777
G1 F960 X124.836 Y171.232 E617.0517
G0 F6000 X122.412 Y171.232
G1 F960 X122.412 Y139.777 E622.2827
G0 F6000 X119.988 Y139.777
G1 F960 X119.988 Y171.232 E627.5137
G0 F6000 X117.564 Y171.232
G1 F960 X117.564 Y139.777 E632.7446
G0 F6000 X115.140 Y139.777
G1 F960 X115.140 Y171.232 E637.9756
G0 F6000 X112.716 Y171.231
G1 F960 X112.716 Y139.777 E643.2065
G0 F6000 X110.292 Y139.777
G1 F960 X110.292 Y171.231 E648.4373
G0 F6000 X107.868 Y171.231
G1 F960 X107.868 Y139.777 E653.6681
G0 F6000 X105.444 Y139.777
G1 F960 X105.444 Y171.231 E658.8989
G0 F6000 X103.020 Y171.231
G1 F960 X103.020 Y139.777 E664.1297
G0 F6000 X100.596 Y139.777
G1 F960 X100.596 Y171.231 E669.3606
G0 F6000 X98.172 Y171.231
G1 F960 X98.172 Y139.777 E674.5914
G0 F6000 X95.748 Y140.163
G1 F960 X95.748 Y170.838 E679.6927
G0 F6000 X93.324 Y167.682
G1 F960 X93.324 Y143.344 E683.7401
;PRINTING_TIME: 399
;REMAINING_TIME: 3793
;LAYER:-1
;Z:1.380
;HEIGHT:0.380
;PRINTING: NON-OBJECT
;PRINTING_ID: -1
G1 F2400 E682.2401
G0 F300 Z1.380
G0 F6000 X146.409 Y133.800
;TYPE:RAFT
;WIDTH:0.600
G1 F1500 E683.7401
G1 F1800 X210.417 Y133.800 E689.8075
G0 F6000 X211.335 Y135.000
G1 F1800 X145.489 Y135.000 E696.0491
G0 F6000 X145.079 Y136.200
G1 F1800 X211.751 Y136.200 E702.3691
G0 F6000 X211.829 Y137.400
G1 F1800 X144.792 Y137.400 E708.7236
G0 F6000 X143.992 Y138.600
G1 F1800 X211.829 Y138.600 E715.1540
G0 F6000 X211.829 Y139.800
G1 F1800 X96.558 Y139.800 E726.0806
G1 F2400 E724.5806
G0 F6000 X94.407 Y141.000
G1 F1500 E726.0806
G1 F1800 X211.829 Y141.000 E737.2112
G0 F6000 X211.829 Y142.200
G1 F1800 X93.576 Y142.200 E748.4206
G0 F6000 X93.222 Y143.400
G1 F1800 X211.829 Y143.400 E759.6635
G0 F6000 X211.829 Y144.600
G1 F1800 X93.169 Y144.600 E770.9115
G0 F6000 X93.169 Y145.800
G1 F1800 X211.829 Y145.800 E782.1594
G0 F6000 X211.829 Y147.000
G1 F1800 X93.169 Y147.000 E793.4074
G0 F6000 X93.169 Y148.200
G1 F1800 X211.829 Y148.200 E804.6553
G0 F6000 X211.829 Y149.400
G1 F1800 X93.169 Y149.400 E815.9033
G0 F6000 X93.169 Y150.600
G1 F1800 X211.829 Y150.600 E827.1512
G0 F6000 X211.829 Y151.800
G1 F1800 X93.169 Y151.800 E838.3992
G0 F6000 X93.169 Y153.000
G1 F1800 X211.829 Y153.000 E849.6471
G0 F6000 X211.829 Y154.200
G1 F1800 X93.169 Y154.200 E860.8950
G0 F6000 X93.169 Y155.400
G1 F1800 X211.829 Y155.400 E872.1430
G0 F6000 X211.829 Y156.600
G1 F1800 X93.169 Y156.600 E883.3909
G0 F6000 X93.169 Y157.800
G1 F1800 X211.829 Y157.800 E894.6389
G0 F6000 X211.829 Y159.000
G1 F1800 X93.169 Y159.000 E905.8868
G0 F6000 X93.169 Y160.200
G1 F1800 X211.829 Y160.200 E917.1348
G0 F6000 X211.829 Y161.400
G1 F1800 X93.169 Y161.400 E928.3827
G0 F6000 X93.169 Y162.600
G1 F1800 X211.829 Y162.600 E939.6307
G0 F6000 X211.829 Y163.800
G1 F1800 X93.169 Y163.800 E950.8786
G0 F6000 X93.169 Y165.000
G1 F1800 X211.829 Y165.000 E962.1266
G0 F6000 X211.829 Y166.200
G1 F1800 X93.169 Y166.200 E973.3745
G0 F6000 X93.196 Y167.400
G1 F1800 X211.829 Y167.400 E984.6199
G0 F6000 X211.771 Y168.600
G1 F1800 X93.490 Y168.600 E995.8319
G0 F6000 X94.217 Y169.800
G1 F1800 X211.423 Y169.800 E1006.9420
G0 F6000 X210.607 Y171.000
G1 F1800 X95.900 Y171.000 E1017.8153
G1 F2400 E1016.3153
G0 F6000 X148.292 Y172.200
G1 F1500 E1017.8153
